packages/foundations/assets/icons/functional/images/communication/speech_bubble.svg

<svg xmlns="http://www.w3.org/2000/svg" width="32" height="32" fill="none"><path fill="#1A1C1F" fill-rule="evenodd" d="M4.4 2.561c-1.04.207-1.916 1.006-2.282 2.079L2 4.987l-.017 11.706c-.012 8.587 0 11.782.044 11.988.141.65.816.99 1.413.71.144-.067 1.121-1.011 3.013-2.909 1.54-1.546 2.848-2.838 2.907-2.873.08-.047 2.369-.069 9.173-.089l9.067-.027.386-.141c.497-.181.78-.35 1.094-.653.501-.482.793-1.088.893-1.854.041-.31.053-2.78.041-8.152-.02-8.534.009-7.871-.366-8.632-.35-.711-1.222-1.349-2.044-1.497-.377-.068-22.864-.071-23.204-.003m23.056 2.047c.199.104.364.291.461.524.074.176.083 1.067.083 7.881 0 6.815-.009 7.706-.083 7.881a1.1 1.1 0 0 1-.424.511c-.079.046-2.45.069-9.2.089-8.642.025-9.108.032-9.386.125-.665.222-.794.332-2.893 2.453l-2.013 2.035L4 15.692c0-11.209-.014-10.608.255-10.911.227-.255-.304-.243 11.734-.246 9.624-.001 11.345.01 11.467.073"/></svg>

<svg width="32" height="32" viewBox="0 0 32 32" fill="none" xmlns="http://www.w3.org/2000/svg"><path d="M4.400 2.561 C 3.360 2.768,2.484 3.567,2.118 4.640 L 2.000 4.987 1.983 16.693 C 1.971 25.280,1.983 28.475,2.027 28.681 C 2.168 29.331,2.843 29.671,3.440 29.391 C 3.584 29.324,4.561 28.380,6.453 26.482 C 7.993 24.936,9.301 23.644,9.360 23.609 C 9.440 23.562,11.729 23.540,18.533 23.520 L 27.600 23.493 27.986 23.352 C 28.483 23.171,28.766 23.002,29.080 22.699 C 29.581 22.217,29.873 21.611,29.973 20.845 C 30.014 20.535,30.026 18.065,30.014 12.693 C 29.994 4.159,30.023 4.822,29.648 4.061 C 29.298 3.350,28.426 2.712,27.604 2.564 C 27.227 2.496,4.740 2.493,4.400 2.561 M27.456 4.608 C 27.655 4.712,27.820 4.899,27.917 5.132 C 27.991 5.308,28.000 6.199,28.000 13.013 C 28.000 19.828,27.991 20.719,27.917 20.894 C 27.828 21.108,27.663 21.307,27.493 21.405 C 27.414 21.451,25.043 21.474,18.293 21.494 C 9.651 21.519,9.185 21.526,8.907 21.619 C 8.242 21.841,8.113 21.951,6.014 24.072 L 4.001 26.107 4.000 15.692 C 4.000 4.483,3.986 5.084,4.255 4.781 C 4.482 4.526,3.951 4.538,15.989 4.535 C 25.613 4.534,27.334 4.545,27.456 4.608 " fill="#1A1C1F" stroke="none" fill-rule="evenodd"></path></svg>
